icons/svgs/chevron-down-outline.svg

<svg width="24" height="24" viewBox="0 0 24 24" fill="none" xmlns="http://www.w3.org/2000/svg">
<path d="M11.3359 17.6641L3.83594 10.1641C3.44531 9.8125 3.44531 9.22656 3.83594 8.83594C4.1875 8.48438 4.77344 8.48438 5.16406 8.83594L12 15.7109L18.8359 8.875C19.1875 8.48438 19.7734 8.48438 20.1641 8.875C20.5156 9.22656 20.5156 9.8125 20.1641 10.1641L12.625 17.6641C12.2734 18.0547 11.6875 18.0547 11.3359 17.6641Z" fill="black"/>
</svg>

<svg xmlns="http://www.w3.org/2000/svg" width="24" height="24" fill="currentColor" class="icon-chevron-down-outline" viewBox="0 0 24 24">
  <mask id="a" width="18" height="10" x="3" y="8" maskUnits="userSpaceOnUse" style="mask-type:alpha">
    <path d="m11.336 17.664-7.5-7.5c-.39-.351-.39-.937 0-1.328.352-.352.937-.352 1.328 0L12 15.71l6.836-6.836c.352-.39.937-.39 1.328 0a.92.92 0 0 1 0 1.29l-7.539 7.5a.856.856 0 0 1-1.29 0"/>
  </mask>
  <g mask="url(#a)">
    <path d="M0 0h24v24H0z"/>
  </g>
</svg>
